symbols/web/mail_lock/materialsymbolsoutlined/mail_lock_wght300grad200_24px.svg

<svg xmlns="http://www.w3.org/2000/svg" height="24" width="24"><path d="M4.15 20.25q-1.025 0-1.737-.712Q1.7 18.825 1.7 17.8V6.2q0-1.025.713-1.737.712-.713 1.737-.713h15.7q1.025 0 1.737.713.713.712.713 1.737v3.925h-2.15V8.05L12 13.15l-8.15-5.1v9.75q0 .125.088.213.087.087.212.087h12v2.15ZM12 11l8-5.1H4Zm-8.15 7.1V5.9v12.2Zm15.375 2.15q-.45 0-.762-.312-.313-.313-.313-.763v-3q0-.4.288-.7.287-.3.712-.35v-.95q0-.85.613-1.45.612-.6 1.462-.6t1.463.6q.612.6.612 1.45v.95q.425.05.713.35.287.3.287.7v3q0 .45-.312.763-.313.312-.763.312Zm1.075-5.125h1.85v-.95q0-.35-.275-.638-.275-.287-.65-.287t-.65.287q-.275.288-.275.638Z"/></svg>

<svg xmlns="http://www.w3.org/2000/svg" height="24" width="24"><path d="M4.15 20.25Q3.125 20.25 2.413 19.538Q1.7 18.825 1.7 17.8V6.2Q1.7 5.175 2.413 4.463Q3.125 3.75 4.15 3.75H19.85Q20.875 3.75 21.587 4.463Q22.3 5.175 22.3 6.2V10.125H21.225H20.15V8.05L12 13.15L3.85 8.05V17.8Q3.85 17.925 3.938 18.013Q4.025 18.1 4.15 18.1H16.15V20.25ZM12 11 20 5.9H4ZM3.85 18.1V15.1Q3.85 13.025 3.85 11.575Q3.85 10.125 3.85 10.125V8.05V5.9V8.05V17.8Q3.85 17.925 3.85 18.013Q3.85 18.1 3.85 18.1ZM19.225 20.25Q18.775 20.25 18.463 19.938Q18.15 19.625 18.15 19.175V16.175Q18.15 15.775 18.438 15.475Q18.725 15.175 19.15 15.125V14.175Q19.15 13.325 19.763 12.725Q20.375 12.125 21.225 12.125Q22.075 12.125 22.688 12.725Q23.3 13.325 23.3 14.175V15.125Q23.725 15.175 24.013 15.475Q24.3 15.775 24.3 16.175V19.175Q24.3 19.625 23.988 19.938Q23.675 20.25 23.225 20.25ZM20.3 15.125H22.15V14.175Q22.15 13.825 21.875 13.537Q21.6 13.25 21.225 13.25Q20.85 13.25 20.575 13.537Q20.3 13.825 20.3 14.175Z"/></svg>
